X:1
T:Title
%%score { ( 1 3 ) | 2 }
L:1/8
Q:1/4=100
M:6/4
K:C
V:1 treble nm="Grand Piano"
V:3 treble 
V:2 bass 
V:1
 [Ec]2 [EB]2 [FA]2 [EG]2 [DF]2 E2 | D2 D2 E2 F6 | [DFB]2 [CFA]2 [B,FG]2 [B,D]4 [B,_E]2 | [CE]12 | %4
w: Scott~Lawrence * * * * *||||
 [Ec]2 [EB]2 [FA]2 [EG]2 [DF]2 E2 | D2 D2 E2 F6 | [C^FA]2 [CFA]2 [CFA]2 [DFB]4 [DFc]2 | [DFB]12 | %8
w: ||||
 [G,CE]2 [G,DF]2 [A,_E^F]2 [C=EG]2 [Ec]4 | [FB]2 [FA]2 B2 [Ec]2 [EG]4 | %10
w: ||
 [FA]2 [FA]2 [GA]2 [FA]4 [^Fc]2 | B12 | [EG]2 [_E^F]2 [=EG]2 [^CEA]4 [A,EG]E | z6 A6 | %14
w: ||||
 G2 A2 [Gc]2 [^Fc]4 [=FB]2 | [Ec]12 |] %16
w: ||
V:2
 [C,G,]2 [C,G,]2 [C,C]2 [C,C]2 [C,G,]2 [C,G,C]2 | [F,A,]2 [F,A,]2 [E,A,^C]2 [D,A,D]6 | %2
 G,,2 G,,2 G,,2 [G,,G,]4 [G,,G,]2 | [C,G,]12 | [C,G,]2 [C,G,]2 [C,C]2 [C,C]2 [C,G,]2 [C,G,C]2 | %5
 [F,A,C]2 [F,A,C]2 [E,A,^C]2 [D,A,D]6 | D,2 D,2 D,2 D,4 D,2 | G,,12 | C,2 C,2 C,2 C,2 [C,G,]4 | %9
 [D,G,]2 [D,G,]2 [G,F]2 [C,G,]2 [C,C]4 | [F,C]2 [F,C]2 [E,^C]2 [D,D]4 [D,D]2 | %11
 [G,DF]4 [G,D]2 [G,D]4 [G,B,F][G,B,F] | [C,C]2 [C,C]2 [C,C]2 A,,4 ^C,[C,A,] | %13
 [D,A,D]2 [D,A,D]2 [E,A,^C]2 [F,D]4 [^F,=C]2 | [G,CE]2 [G,CE]2 [E,C]2 [D,A,]4 [G,,G,]2 | %15
 [C,G,]12 |] %16
V:3
 x12 | x12 | x12 | x12 | x12 | x12 | x12 | x12 | x12 | x12 | x12 | z4 F2 F4 GG | x12 | %13
 F2 F2 G2 z4 _E2 | x12 | x12 |] %16

